my-site/themes/moving-test/assets/images/phonee-icon.svg

<svg width="31" height="31" viewBox="0 0 31 31" fill="none" xmlns="http://www.w3.org/2000/svg">
<rect x="0.5" y="0.5" width="29.7686" height="29.7686" rx="4.5" stroke="white"/>
<path d="M22.4619 20.6976L19.0413 18.9874C18.8808 18.9072 18.6991 18.8797 18.522 18.9085C18.3448 18.9374 18.1813 19.0212 18.0545 19.1481L16.6221 20.5805C14.5638 20.2496 11.3203 17.0069 10.9902 14.9486L12.4226 13.5162C12.5495 13.3894 12.6333 13.2259 12.6622 13.0487C12.691 12.8716 12.6635 12.6899 12.5833 12.5294L10.8731 9.10885C10.8171 8.99673 10.7371 8.89828 10.6389 8.82048C10.5406 8.74268 10.4265 8.68743 10.3045 8.65863C10.1825 8.62983 10.0557 8.62819 9.93306 8.65383C9.81039 8.67946 9.69485 8.73175 9.59463 8.80699L6.17409 11.3724C6.06788 11.452 5.98168 11.5553 5.92231 11.6741C5.86294 11.7928 5.83203 11.9237 5.83203 12.0565C5.83203 20.2401 11.3306 25.7387 19.5142 25.7387C19.647 25.7387 19.7779 25.7078 19.8966 25.6484C20.0154 25.589 20.1187 25.5028 20.1983 25.3966L22.7637 21.9761C22.8389 21.8758 22.8912 21.7603 22.9169 21.6376C22.9425 21.515 22.9409 21.3882 22.9121 21.2662C22.8833 21.1442 22.828 21.0301 22.7502 20.9318C22.6724 20.8336 22.574 20.7536 22.4619 20.6976Z" fill="white"/>
<path d="M16.7188 5.82324C18.7181 6.10042 24.9321 5.82324 24.9321 14.3143" stroke="white" stroke-width="2"/>
<path d="M15.8594 10.0684C17.0682 10.2359 20.825 10.0684 20.825 15.2019" stroke="white" stroke-width="2"/>
</svg>

<svg xmlns="http://www.w3.org/2000/svg" width="31" height="31" fill="none" viewBox="0 0 31 31"><rect width="29.769" height="29.769" x=".5" y=".5" stroke="#fff" rx="4.5"/><path fill="#fff" d="m22.462 20.698-3.42-1.71a.855.855 0 0 0-.988.16l-1.432 1.433c-2.058-.331-5.302-3.574-5.632-5.632l1.433-1.433a.855.855 0 0 0 .16-.987l-1.71-3.42a.856.856 0 0 0-1.278-.302l-3.42 2.565a.85.85 0 0 0-.343.684c0 8.184 5.499 13.683 13.682 13.683a.85.85 0 0 0 .684-.342l2.566-3.42a.857.857 0 0 0-.302-1.28"/><path stroke="#fff" stroke-width="2" d="M16.719 5.823c2 .277 8.213 0 8.213 8.491M15.86 10.068c1.208.168 4.965 0 4.965 5.134"/></svg>
